dist/assets/images/icons/tabs_policy.svg

<svg width="52" height="44" viewBox="0 0 52 44" fill="none" xmlns="http://www.w3.org/2000/svg">
<path d="M4.875 12.5625C5.5 6.37499 10.75 1.5 17.125 1.5C21.6875 1.5 25.8124 4.06249 27.9374 7.93748C30.0624 4.06249 34.1249 1.5 38.6874 1.5C45.4374 1.5 50.9999 6.99999 50.9999 13.8125C50.9999 27.8749 29.4374 41.1249 28.4999 41.6874L27.9374 42.0624L27.3749 41.6874C27.0624 41.4999 24.625 39.9999 21.4375 37.5624" stroke="#79655E" stroke-width="2" stroke-miterlimit="10" stroke-linecap="round" stroke-linejoin="round"/>
<path d="M38.6875 9.0625C41.3125 9.0625 43.4375 11.1875 43.4375 13.8125" stroke="#79655E" stroke-width="2" stroke-miterlimit="10" stroke-linecap="round" stroke-linejoin="round"/>
<path d="M7.0625 25.5L10.875 29.3125L17.0625 23.0625" stroke="#79655E" stroke-width="2" stroke-miterlimit="10" stroke-linecap="round" stroke-linejoin="round"/>
<path d="M11.75 12.5C11.75 12.5 5.87499 17.0625 1 17.0625V28.5625C1 30.9375 2 33.1249 3.62499 34.3124C5.31249 35.5624 10.4375 38.9374 10.6875 39.0624L11.75 39.7499L12.8125 39.0624C13 38.9374 18.125 35.5624 19.875 34.3124C21.4999 33.1249 22.4999 30.9375 22.4999 28.5625V17C17.5625 17 11.75 12.5 11.75 12.5Z" stroke="#79655E" stroke-width="2" stroke-miterlimit="10" stroke-linecap="round" stroke-linejoin="round"/>
</svg>

<svg width="52" height="44" fill="none" xmlns="http://www.w3.org/2000/svg"><path d="M4.875 12.563C5.5 6.375 10.75 1.5 17.125 1.5c4.563 0 8.687 2.562 10.812 6.437C30.062 4.062 34.125 1.5 38.687 1.5 45.437 1.5 51 7 51 13.813c0 14.062-21.563 27.312-22.5 27.874l-.563.375-.562-.375c-.313-.187-2.75-1.687-5.938-4.125M38.688 9.063a4.748 4.748 0 014.75 4.75" stroke="#79655E" stroke-width="2" stroke-miterlimit="10" stroke-linecap="round" stroke-linejoin="round"/><path d="M7.063 25.5l3.812 3.813 6.188-6.25" stroke="#79655E" stroke-width="2" stroke-miterlimit="10" stroke-linecap="round" stroke-linejoin="round"/><path d="M11.75 12.5S5.875 17.063 1 17.063v11.5c0 2.375 1 4.562 2.625 5.75 1.687 1.25 6.813 4.624 7.063 4.75l1.062.687 1.063-.688c.187-.125 5.312-3.5 7.062-4.75 1.625-1.187 2.625-3.374 2.625-5.75V17c-4.938 0-10.75-4.5-10.75-4.5z" stroke="#79655E" stroke-width="2" stroke-miterlimit="10" stroke-linecap="round" stroke-linejoin="round"/></svg>
